;Generated with Cura_SteamEngine 15.01
;START G CODE
G21 ; set units to millimeters
M107
M355 S1 C3 ; turn led blue
M104 S230 ; set temperature
G28 X0 Y0 Z0
G29
M109 S230 ; wait for temperature to be reached

M355 S1 C0 ; LED white

; -- Ken stuff
;G1 X142.5 Y10 Z0; move to corner
;G92 E0 ;zero the extruded length
;G1 E10 F120; extrude 5mm
;G1 E9; small retract, as default for layer change
G92 E0 ;zero the extruded length

;G0 F4200 X80.000 Y20.00

; -- End Ken stuff
;Layer count: 7
;LAYER:0
M107
G0 F9000 X14.419 Y29.273 Z0.300
;TYPE:SKIRT
G1 F1440 X15.321 Y28.890 E0.04840
G1 X16.254 Y28.587 E0.09685
G1 X17.284 Y28.351 E0.14904
G1 X18.189 Y28.231 E0.19413
G1 X19.096 Y28.184 E0.23899
G1 X23.557 Y28.181 E0.45933
G1 X65.315 Y28.181 E2.52181
G1 X66.225 Y28.220 E2.56680
G1 X67.194 Y28.349 E2.61508
G1 X68.072 Y28.542 E2.65948
G1 X68.878 Y28.789 E2.70112
G1 X69.088 Y28.856 E2.71200
G1 X69.916 Y29.199 E2.75627
G1 X70.775 Y29.637 E2.80389
G1 X71.607 Y30.157 E2.85235
G1 X72.387 Y30.747 E2.90066
G1 X73.115 Y31.402 E2.94903
G1 X73.836 Y32.178 E3.00134
G1 X74.391 Y32.901 E3.04636
G1 X74.917 Y33.712 E3.09411
G1 X75.374 Y34.574 E3.14229
G1 X75.789 Y35.551 E3.19472
G1 X76.063 Y36.423 E3.23987
G1 X76.296 Y37.438 E3.29130
G1 X76.427 Y38.422 E3.34033
G1 X76.463 Y39.265 E3.38201
G1 X76.466 Y44.837 E3.65722
G1 X76.466 Y45.470 E3.68848
G1 X76.436 Y46.174 E3.72329
G1 X76.426 Y46.383 E3.73362
G1 X76.308 Y47.274 E3.77801
G1 X76.090 Y48.294 E3.82953
G1 X75.793 Y49.240 E3.87850
G1 X75.416 Y50.145 E3.92692
G1 X74.966 Y51.012 E3.97517
G1 X74.439 Y51.839 E4.02361
G1 X73.890 Y52.553 E4.06809
G1 X73.191 Y53.329 E4.11967
G1 X72.679 Y53.797 E4.15394
G1 X72.904 Y53.938 E4.16705
G1 X73.684 Y54.528 E4.21536
G1 X74.412 Y55.183 E4.26372
G1 X75.133 Y55.959 E4.31604
G1 X75.688 Y56.682 E4.36106
G1 X76.214 Y57.493 E4.40880
G1 X76.671 Y58.355 E4.45699
G1 X77.086 Y59.332 E4.50942
G1 X77.360 Y60.204 E4.55457
G1 X77.593 Y61.219 E4.60600
G1 X77.724 Y62.203 E4.65503
G1 X77.760 Y63.046 E4.69671
G1 X77.763 Y68.618 E4.97192
G1 X77.763 Y69.251 E5.00318
G1 X77.733 Y69.955 E5.03798
G1 X77.723 Y70.164 E5.04832
G1 X77.605 Y71.055 E5.09271
G1 X77.387 Y72.075 E5.14423
G1 X77.090 Y73.021 E5.19320
G1 X76.713 Y73.926 E5.24162
G1 X76.263 Y74.793 E5.28987
G1 X75.736 Y75.620 E5.33830
G1 X75.187 Y76.334 E5.38279
G1 X74.488 Y77.110 E5.43437
G1 X73.756 Y77.779 E5.48335
G1 X73.043 Y78.327 E5.52777
G1 X72.164 Y78.896 E5.57949
G1 X71.357 Y79.316 E5.62442
G1 X70.467 Y79.694 E5.67218
G1 X69.460 Y80.020 E5.72446
G1 X68.492 Y80.234 E5.77342
G1 X67.600 Y80.352 E5.81786
G1 X66.692 Y80.399 E5.86277
G1 X20.474 Y80.402 E8.14554
G1 X19.565 Y80.363 E8.19047
G1 X18.670 Y80.244 E8.23507
G1 X17.651 Y80.026 E8.28654
G1 X16.901 Y79.791 E8.32536
G1 X16.701 Y79.727 E8.33573
G1 X15.871 Y79.383 E8.38010
G1 X14.941 Y78.907 E8.43171
G1 X14.105 Y78.375 E8.48065
G1 X13.392 Y77.827 E8.52506
G1 X12.674 Y77.182 E8.57274
G1 X12.007 Y76.464 E8.62114
G1 X11.357 Y75.631 E8.67333
G1 X10.823 Y74.793 E8.72240
G1 X10.373 Y73.926 E8.77065
G1 X9.996 Y73.021 E8.81907
G1 X9.702 Y72.085 E8.86753
G1 X9.491 Y71.131 E8.91579
G1 X9.373 Y70.238 E8.96028
G1 X9.323 Y69.264 E9.00845
G1 X9.323 Y63.113 E9.31226
G1 X9.359 Y62.282 E9.35334
G1 X9.489 Y61.244 E9.40501
G1 X9.702 Y60.279 E9.45382
G1 X9.996 Y59.343 E9.50227
G1 X10.373 Y58.438 E9.55070
G1 X10.823 Y57.571 E9.59894
G1 X11.350 Y56.744 E9.64738
G1 X11.946 Y55.969 E9.69567
G1 X12.553 Y55.304 E9.74014
G1 X13.110 Y54.786 E9.77771
G1 X12.808 Y54.594 E9.79538
G1 X12.095 Y54.046 E9.83980
G1 X11.377 Y53.401 E9.88747
G1 X10.710 Y52.683 E9.93587
G1 X10.060 Y51.850 E9.98806
G1 X9.526 Y51.012 E10.03714
G1 X9.076 Y50.145 E10.08538
G1 X8.699 Y49.240 E10.13381
G1 X8.405 Y48.304 E10.18226
G1 X8.194 Y47.350 E10.23052
G1 X8.076 Y46.457 E10.27501
G1 X8.026 Y45.483 E10.32318
G1 X8.026 Y39.332 E10.62699
G1 X8.062 Y38.501 E10.66807
G1 X8.192 Y37.463 E10.71974
G1 X8.405 Y36.498 E10.76855
G1 X8.699 Y35.562 E10.81701
G1 X9.076 Y34.657 E10.86543
G1 X9.526 Y33.790 E10.91368
G1 X10.053 Y32.963 E10.96211
G1 X10.649 Y32.188 E11.01040
G1 X11.256 Y31.523 E11.05487
G1 X12.023 Y30.811 E11.10656
G1 X12.746 Y30.256 E11.15158
G1 X13.557 Y29.730 E11.19932
G1 X14.419 Y29.273 E11.24751
G0 F9000 X18.225 Y84.057
G1 F1440 X19.132 Y84.010 E11.29237
G1 X23.593 Y84.007 E11.51270
G1 X65.351 Y84.007 E13.57518
G1 X66.261 Y84.046 E13.62017
G1 X67.230 Y84.175 E13.66845
G1 X68.108 Y84.368 E13.71286
G1 X68.914 Y84.615 E13.75449
G1 X69.124 Y84.682 E13.76538
G1 X69.952 Y85.025 E13.80965
G1 X70.811 Y85.463 E13.85727
G1 X71.643 Y85.983 E13.90573
G1 X72.423 Y86.573 E13.95403
G1 X73.151 Y87.228 E14.00240
G1 X73.872 Y88.004 E14.05472
G1 X74.427 Y88.727 E14.09974
G1 X74.953 Y89.538 E14.14748
G1 X75.410 Y90.400 E14.19567
G1 X75.825 Y91.377 E14.24810
G1 X76.099 Y92.249 E14.29324
G1 X76.332 Y93.264 E14.34468
G1 X76.463 Y94.248 E14.39371
G1 X76.499 Y95.091 E14.43539
G1 X76.502 Y100.663 E14.71059
G1 X76.502 Y101.296 E14.74186
G1 X76.472 Y102.000 E14.77666
G1 X76.462 Y102.209 E14.78700
G1 X76.344 Y103.100 E14.83139
G1 X76.126 Y104.120 E14.88290
G1 X75.829 Y105.066 E14.93188
G1 X75.452 Y105.971 E14.98030
G1 X75.002 Y106.838 E15.02855
G1 X74.475 Y107.665 E15.07698
G1 X73.926 Y108.379 E15.12147
G1 X73.227 Y109.155 E15.17305
G1 X72.611 Y109.718 E15.21427
G1 X73.351 Y110.181 E15.25738
G1 X74.131 Y110.771 E15.30569
G1 X74.859 Y111.426 E15.35406
G1 X75.580 Y112.202 E15.40637
G1 X76.135 Y112.925 E15.45139
G1 X76.661 Y113.736 E15.49914
G1 X77.118 Y114.598 E15.54733
G1 X77.533 Y115.575 E15.59975
G1 X77.807 Y116.447 E15.64490
G1 X78.040 Y117.462 E15.69633
G1 X78.171 Y118.446 E15.74536
G1 X78.207 Y119.289 E15.78704
G1 X78.210 Y124.861 E16.06225
G1 X78.210 Y125.494 E16.09351
G1 X78.180 Y126.198 E16.12832
G1 X78.170 Y126.407 E16.13865
G1 X78.052 Y127.298 E16.18304
G1 X77.834 Y128.318 E16.23456
G1 X77.537 Y129.264 E16.28353
G1 X77.160 Y130.169 E16.33195
G1 X76.710 Y131.036 E16.38020
G1 X76.183 Y131.863 E16.42864
G1 X75.634 Y132.577 E16.47312
G1 X74.935 Y133.353 E16.52471
G1 X74.203 Y134.022 E16.57368
G1 X73.490 Y134.570 E16.61810
G1 X72.611 Y135.139 E16.66982
G1 X71.804 Y135.559 E16.71475
G1 X70.914 Y135.937 E16.76251
G1 X69.907 Y136.263 E16.81479
G1 X68.939 Y136.477 E16.86375
G1 X68.047 Y136.595 E16.90819
G1 X67.139 Y136.642 E16.95310
G1 X20.921 Y136.645 E19.23587
G1 X20.012 Y136.606 E19.28081
G1 X19.117 Y136.487 E19.32540
G1 X18.098 Y136.269 E19.37687
G1 X17.348 Y136.034 E19.41569
G1 X17.148 Y135.970 E19.42606
G1 X16.318 Y135.626 E19.47044
G1 X15.388 Y135.150 E19.52204
G1 X14.552 Y134.618 E19.57098
G1 X13.839 Y134.070 E19.61540
G1 X13.121 Y133.425 E19.66307
G1 X12.454 Y132.707 E19.71147
G1 X11.804 Y131.874 E19.76366
G1 X11.270 Y131.036 E19.81274
G1 X10.820 Y130.169 E19.86098
G1 X10.443 Y129.264 E19.90941
G1 X10.149 Y128.328 E19.95786
G1 X9.938 Y127.374 E20.00612
G1 X9.820 Y126.481 E20.05061
G1 X9.770 Y125.507 E20.09878
G1 X9.770 Y119.356 E20.40259
G1 X9.806 Y118.525 E20.44367
G1 X9.936 Y117.487 E20.49534
G1 X10.149 Y116.522 E20.54415
G1 X10.443 Y115.586 E20.59261
G1 X10.820 Y114.681 E20.64103
G1 X11.270 Y113.814 E20.68928
G1 X11.797 Y112.987 E20.73771
G1 X12.393 Y112.212 E20.78600
G1 X13.000 Y111.547 E20.83047
G1 X13.657 Y110.937 E20.87475
G1 X12.844 Y110.420 E20.92234
G1 X12.131 Y109.872 E20.96675
G1 X11.413 Y109.227 E21.01442
G1 X10.746 Y108.509 E21.06283
G1 X10.096 Y107.676 E21.11501
G1 X9.562 Y106.838 E21.16409
G1 X9.112 Y105.971 E21.21234
G1 X8.735 Y105.066 E21.26076
G1 X8.441 Y104.130 E21.30922
G1 X8.230 Y103.176 E21.35748
G1 X8.112 Y102.283 E21.40197
G1 X8.062 Y101.309 E21.45014
G1 X8.062 Y95.158 E21.75394
G1 X8.098 Y94.327 E21.79503
G1 X8.228 Y93.289 E21.84669
G1 X8.441 Y92.324 E21.89550
G1 X8.735 Y91.388 E21.94396
G1 X9.112 Y90.483 E21.99238
G1 X9.562 Y89.616 E22.04063
G1 X10.089 Y88.789 E22.08907
G1 X10.685 Y88.014 E22.13735
G1 X11.292 Y87.349 E22.18183
G1 X12.059 Y86.637 E22.23351
G1 X12.782 Y86.082 E22.27853
G1 X13.593 Y85.556 E22.32628
G1 X14.455 Y85.099 E22.37447
G1 X15.357 Y84.716 E22.42287
G1 X16.290 Y84.413 E22.47132
G1 X17.320 Y84.177 E22.52351
G1 X18.225 Y84.057 E22.56860
G1 F2400 E19.06860
G1 Z0.403
G0 F9000 X19.251 Y52.741
;TYPE:WALL-INNER
G1 Z0.300
G1 F2400 E22.56860
G1 F1440 X18.608 Y52.713 E22.60039
G1 X18.033 Y52.637 E22.62903
G1 X17.351 Y52.491 E22.66348
G1 X16.771 Y52.309 E22.69351
G1 X16.205 Y52.078 E22.72370
G1 X15.569 Y51.752 E22.75900
G1 X15.033 Y51.411 E22.79038
G1 X14.582 Y51.064 E22.81848
G1 X14.097 Y50.628 E22.85069
G1 X13.667 Y50.166 E22.88187
G1 X13.234 Y49.611 E22.91664
G1 X12.894 Y49.077 E22.94790
G1 X12.589 Y48.490 E22.98058
G1 X12.352 Y47.921 E23.01102
G1 X12.155 Y47.294 E23.04348
G1 X12.018 Y46.676 E23.07475
G1 X11.942 Y46.098 E23.10354
G1 X11.906 Y45.387 E23.13870
G1 X11.906 Y39.401 E23.43436
G1 X11.931 Y38.832 E23.46249
G1 X12.020 Y38.120 E23.49793
G1 X12.155 Y37.508 E23.52888
G1 X12.352 Y36.881 E23.56134
G1 X12.589 Y36.312 E23.59179
G1 X12.894 Y35.725 E23.62446
G1 X13.236 Y35.188 E23.65591
G1 X13.624 Y34.684 E23.68732
G1 X14.012 Y34.259 E23.71574
G1 X14.535 Y33.774 E23.75097
G1 X14.981 Y33.431 E23.77876
G1 X15.528 Y33.077 E23.81094
G1 X16.084 Y32.782 E23.84203
G1 X16.682 Y32.528 E23.87412
G1 X17.293 Y32.329 E23.90586
G1 X17.975 Y32.173 E23.94042
G1 X18.543 Y32.098 E23.96871
G1 X19.195 Y32.064 E24.00096
G1 X65.241 Y32.061 E26.27523
G1 X65.883 Y32.089 E26.30697
G1 X66.512 Y32.172 E26.33831
G1 X67.092 Y32.300 E26.36764
G1 X67.719 Y32.492 E26.40003
G1 X68.292 Y32.726 E26.43060
G1 X68.859 Y33.016 E26.46206
G1 X69.404 Y33.356 E26.49378
G1 X69.919 Y33.746 E26.52569
G1 X70.389 Y34.168 E26.55689
G1 X70.873 Y34.690 E26.59205
G1 X71.216 Y35.136 E26.61984
G1 X71.570 Y35.683 E26.65202
G1 X71.870 Y36.248 E26.68362
G1 X72.141 Y36.885 E26.71781
G1 X72.317 Y37.447 E26.74689
G1 X72.474 Y38.130 E26.78151
G1 X72.558 Y38.764 E26.81310
G1 X72.583 Y39.335 E26.84133
G1 X72.586 Y45.401 E27.14093
G1 X72.560 Y46.002 E27.17064
G1 X72.559 Y46.032 E27.17213
G1 X72.482 Y46.614 E27.20112
G1 X72.336 Y47.295 E27.23552
G1 X72.140 Y47.921 E27.26792
G1 X71.903 Y48.490 E27.29837
G1 X71.598 Y49.077 E27.33104
G1 X71.256 Y49.614 E27.36248
G1 X70.909 Y50.066 E27.39063
G1 X70.435 Y50.592 E27.42560
G1 X69.963 Y51.023 E27.45717
G1 X69.511 Y51.371 E27.48535
G1 X68.914 Y51.758 E27.52049
G1 X68.408 Y52.021 E27.54865
G1 X67.807 Y52.276 E27.58090
G1 X67.141 Y52.491 E27.61546
G1 X66.521 Y52.629 E27.64684
G1 X65.949 Y52.704 E27.67533
G1 X65.297 Y52.738 E27.70758
G1 X19.251 Y52.741 E29.98185
G0 F9000 X17.593 Y44.698
G1 F1440 X18.140 Y44.441 E30.01170
G1 X18.607 Y44.054 E30.04166
G1 X18.963 Y43.564 E30.07157
G1 X19.185 Y43.001 E30.10146
G1 X19.261 Y42.401 E30.13133
G1 X19.185 Y41.801 E30.16120
G1 X18.963 Y41.238 E30.19110
G1 X18.607 Y40.748 E30.22101
G1 X18.140 Y40.361 E30.25097
G1 X17.593 Y40.104 E30.28082
G1 X16.998 Y39.990 E30.31074
G1 X16.393 Y40.029 E30.34068
G1 X15.817 Y40.216 E30.37059
G1 X15.308 Y40.540 E30.40040
G1 X14.892 Y40.981 E30.43034
G1 X14.600 Y41.513 E30.46031
G1 X14.450 Y42.099 E30.49019
G1 X14.450 Y42.703 E30.52002
G1 X14.600 Y43.289 E30.54990
G1 X14.892 Y43.821 E30.57987
G1 X15.308 Y44.262 E30.60982
G1 X15.817 Y44.586 E30.63962
G1 X16.393 Y44.773 E30.66953
G1 X16.998 Y44.812 E30.69947
G1 X17.593 Y44.698 E30.72939
G0 F9000 X65.250 Y42.703
G1 F1440 X65.400 Y43.289 E30.75927
G1 X65.692 Y43.821 E30.78924
G1 X66.108 Y44.262 E30.81919
G1 X66.617 Y44.586 E30.84899
G1 X67.193 Y44.773 E30.87890
G1 X67.798 Y44.812 E30.90884
G1 X68.393 Y44.698 E30.93877
G1 X68.940 Y44.441 E30.96862
G1 X69.407 Y44.054 E30.99857
G1 X69.763 Y43.564 E31.02849
G1 X69.985 Y43.001 E31.05838
G1 X70.061 Y42.401 E31.08825
G1 X69.985 Y41.801 E31.11812
G1 X69.763 Y41.238 E31.14801
G1 X69.407 Y40.748 E31.17793
G1 X68.940 Y40.361 E31.20789
G1 X68.393 Y40.104 E31.23774
G1 X67.798 Y39.990 E31.26766
G1 X67.193 Y40.029 E31.29760
G1 X66.617 Y40.216 E31.32751
G1 X66.108 Y40.540 E31.35731
G1 X65.692 Y40.981 E31.38726
G1 X65.400 Y41.513 E31.41723
G1 X65.250 Y42.099 E31.44711
G1 X65.250 Y42.703 E31.47694
G0 F9000 X65.690 Y42.648
;TYPE:WALL-OUTER
G1 F1440 X65.813 Y43.126 E31.50132
G1 X66.051 Y43.560 E31.52577
G1 X66.390 Y43.920 E31.55019
G1 X66.806 Y44.185 E31.57455
G1 X67.276 Y44.338 E31.59896
G1 X67.770 Y44.369 E31.62341
G1 X68.256 Y44.276 E31.64785
G1 X68.703 Y44.066 E31.67224
G1 X69.084 Y43.751 E31.69666
G1 X69.374 Y43.351 E31.72106
G1 X69.556 Y42.891 E31.74550
G1 X69.618 Y42.401 E31.76989
G1 X69.556 Y41.911 E31.79429
G1 X69.374 Y41.451 E31.81872
G1 X69.084 Y41.051 E31.84312
G1 X68.703 Y40.736 E31.86754
G1 X68.256 Y40.526 E31.89193
G1 X67.770 Y40.433 E31.91637
G1 X67.276 Y40.464 E31.94082
G1 X66.806 Y40.617 E31.96523
G1 X66.390 Y40.882 E31.98959
G1 X66.051 Y41.242 E32.01402
G1 X65.813 Y41.676 E32.03846
G1 X65.690 Y42.154 E32.06284
G1 X65.690 Y42.648 E32.08724
G0 F9000 X65.370 Y42.648
G0 X65.710 Y43.808
G0 X67.197 Y44.752
G0 X68.928 Y44.422
G0 X72.706 Y45.388
G0 X73.026 Y45.392
G1 F1440 X72.996 Y46.082 E32.12135
G1 X72.916 Y46.688 E32.15154
G1 X72.761 Y47.413 E32.18816
G1 X72.555 Y48.066 E32.22198
G1 X72.298 Y48.685 E32.25509
G1 X71.984 Y49.289 E32.28871
G1 X71.614 Y49.870 E32.32273
G1 X71.244 Y50.352 E32.35274
G1 X70.747 Y50.904 E32.38943
G1 X70.248 Y51.359 E32.42278
G1 X69.767 Y51.729 E32.45276
G1 X69.127 Y52.143 E32.49040
G1 X68.600 Y52.417 E32.51974
G1 X67.959 Y52.689 E32.55413
G1 X67.264 Y52.914 E32.59021
G1 X66.592 Y53.063 E32.62421
G1 X65.992 Y53.142 E32.65410
G1 X65.301 Y53.178 E32.68828
G1 X19.255 Y53.181 E34.96255
G1 X18.565 Y53.151 E34.99666
G1 X17.959 Y53.071 E35.02685
G1 X17.234 Y52.916 E35.06347
G1 X16.581 Y52.710 E35.09729
G1 X16.022 Y52.479 E35.12716
G1 X15.358 Y52.139 E35.16401
G1 X14.775 Y51.768 E35.19814
G1 X14.303 Y51.405 E35.22755
G1 X13.791 Y50.944 E35.26158
G1 X13.324 Y50.442 E35.29544
G1 X12.878 Y49.870 E35.33127
G1 X12.508 Y49.289 E35.36529
G1 X12.194 Y48.685 E35.39891
G1 X11.937 Y48.066 E35.43201
G1 X11.732 Y47.417 E35.46563
G1 X11.583 Y46.742 E35.49977
G1 X11.505 Y46.147 E35.52941
G1 X11.466 Y45.390 E35.56685
G1 X11.466 Y39.410 E35.86221
G1 X11.493 Y38.779 E35.89340
G1 X11.583 Y38.060 E35.92919
G1 X11.732 Y37.385 E35.96334
G1 X11.938 Y36.731 E35.99720
G1 X12.194 Y36.117 E36.03006
G1 X12.508 Y35.513 E36.06368
G1 X12.879 Y34.930 E36.09781
G1 X13.288 Y34.398 E36.13096
G1 X13.694 Y33.954 E36.16067
G1 X14.250 Y33.438 E36.19814
G1 X14.725 Y33.073 E36.22773
G1 X15.310 Y32.694 E36.26215
G1 X15.892 Y32.385 E36.29470
G1 X16.533 Y32.113 E36.32909
G1 X17.173 Y31.905 E36.36233
G1 X17.892 Y31.740 E36.39877
G1 X18.500 Y31.660 E36.42905
G1 X19.191 Y31.624 E36.46323
G1 X65.237 Y31.621 E38.73750
G1 X65.927 Y31.651 E38.77161
G1 X66.595 Y31.740 E38.80490
G1 X67.204 Y31.873 E38.83569
G1 X67.852 Y32.072 E38.86917
G1 X68.470 Y32.323 E38.90211
G1 X69.073 Y32.631 E38.93556
G1 X69.654 Y32.994 E38.96939
G1 X70.199 Y33.406 E39.00314
G1 X70.701 Y33.858 E39.03650
G1 X71.209 Y34.405 E39.07337
G1 X71.574 Y34.880 E39.10296
G1 X71.953 Y35.465 E39.13739
G1 X72.267 Y36.057 E39.17049
G1 X72.554 Y36.731 E39.20667
G1 X72.743 Y37.333 E39.23783
G1 X72.907 Y38.047 E39.27402
G1 X72.996 Y38.720 E39.30755
G1 X73.023 Y39.335 E39.33795
G1 X73.026 Y45.392 E39.63711
G0 F9000 X72.706 Y45.388
G0 X19.135 Y42.441
G0 X18.818 Y42.401
G1 F1440 X18.756 Y41.911 E39.66151
G1 X18.574 Y41.451 E39.68594
G1 X18.284 Y41.051 E39.71034
G1 X17.903 Y40.736 E39.73476
G1 X17.456 Y40.526 E39.75915
G1 X16.970 Y40.433 E39.78359
G1 X16.476 Y40.464 E39.80804
G1 X16.006 Y40.617 E39.83245
G1 X15.590 Y40.882 E39.85682
G1 X15.251 Y41.242 E39.88124
G1 X15.013 Y41.676 E39.90569
G1 X14.890 Y42.154 E39.93006
G1 X14.890 Y42.648 E39.95446
G1 X15.013 Y43.126 E39.97884
G1 X15.251 Y43.560 E40.00329
G1 X15.590 Y43.920 E40.02771
G1 X16.006 Y44.185 E40.05207
G1 X16.476 Y44.338 E40.07649
G1 X16.970 Y44.369 E40.10094
G1 X17.456 Y44.276 E40.12537
G1 X17.903 Y44.066 E40.14977
G1 X18.284 Y43.751 E40.17418
G1 X18.574 Y43.351 E40.19859
G1 X18.756 Y42.891 E40.22302
G1 X18.818 Y42.401 E40.24742
G0 F9000 X19.376 Y42.711
;TYPE:SKIN
G1 F1440 X29.250 Y52.585 E40.93711
G0 F9000 X28.628 Y52.585
G1 F1440 X19.263 Y43.219 E41.59129
G0 F9000 X19.081 Y43.660
G1 F1440 X28.006 Y52.585 E42.21470
G0 F9000 X27.384 Y52.585
